X: 1
T: Portland Fancy
M: 6/8
N: A 4-phrase version exists
R: jig
K: A
  "E7"E \
| "A"E2A E2A | EAB c2c | "D"dcd "E7"Bcd | "A"e2c "E"BAF \
| "A"E2A E2A | EAB c2c | "D"dcd "E7"BFG | "A"AEc A2 |]
   A \
| "A"a3- "D"agf | "A"ecf e3 | "E7"dBe d3  | "A"cde "D"f2"E7"e \
| "A"a3- "D"agf | "A"ecf e3 | "E7"edB EFG | "A"AEc A2 |]
K: D
|: "A7"F=G \
| "D"ABc d2e | f2g a3 | "Em"efg "A7"A{B}c{d}e | "D"f2{e}d "A7"AFG \
| "D"ABc d2e | f2g a3 | "Em"efg "A7"ABc | "D"dAf d2 :|
%%sep 1 1 500
